notebook-minus.svg

<svg fill="currentColor" viewBox="0 0 24 24"><path d="M3 7V5h2V4c0-1.1.9-2 2-2h6v7l2.5-1.5L18 9V2h1c1 0 2 1 2 2v9.8c-.9-.5-1.9-.8-3-.8-3.3 0-6 2.7-6 6 0 1.1.3 2.1.8 3H7c-1.1 0-2-1-2-2v-1H3v-2h2v-4H3v-2h2V7zm2-2v2h2V5zm0 14h2v-2H5zm0-6h2v-2H5zm9 5v2h8v-2z"/></svg>

<svg  viewBox="0 0 24 24" fill="currentColor"><path  d="M3 7V5H5V4C5 2.9 5.9 2 7 2H13V9L15.5 7.5L18 9V2H19C20 2 21 3 21 4V13.8C20.1 13.3 19.1 13 18 13C14.7 13 12 15.7 12 19C12 20.1 12.3 21.1 12.8 22H7C5.9 22 5 21 5 20V19H3V17H5V13H3V11H5V7H3M5 5V7H7V5H5M5 19H7V17H5V19M5 13H7V11H5V13M14 18V20H22V18H14Z"/></svg>
